svg/fluentui-system-icons/ic_fluent_arrow_autofit_up_20_filled.svg

<svg width="20" height="20" viewBox="0 0 20 20" fill="none" xmlns="http://www.w3.org/2000/svg">
<path d="M15.7121 5.23289L15.0027 4.49838V17.25C15.0027 17.6642 14.667 18 14.2527 18C13.8385 18 13.5027 17.6642 13.5027 17.25V4.49433L12.7895 5.23289C12.5017 5.53084 12.0269 5.53911 11.729 5.25137C11.431 4.96362 11.4228 4.48882 11.7105 4.19087L13.5315 2.30532C13.9246 1.89823 14.577 1.89823 14.9701 2.30532L16.7911 4.19087C17.0788 4.48882 17.0705 4.96362 16.7726 5.25137C16.4746 5.53911 15.9998 5.53084 15.7121 5.23289ZM5 3C3.89543 3 3 3.89543 3 5V15C3 16.1046 3.89543 17 5 17H11.25C11.6642 17 12 16.6642 12 16.25C12 15.8358 11.6642 15.5 11.25 15.5H5C4.72386 15.5 4.5 15.2761 4.5 15V5C4.5 4.72386 4.72386 4.5 5 4.5H9.25C9.66421 4.5 10 4.16421 10 3.75C10 3.33579 9.66421 3 9.25 3H5Z" fill="#212121"/>
</svg>

<svg xmlns="http://www.w3.org/2000/svg" width="20" height="20"><path d="m15.712 5.233-.71-.735V17.25a.75.75 0 1 1-1.5 0V4.494l-.713.739A.75.75 0 0 1 11.71 4.19l1.821-1.886a1 1 0 0 1 1.44 0l1.82 1.886a.75.75 0 0 1-1.079 1.042ZM5 3a2 2 0 0 0-2 2v10a2 2 0 0 0 2 2h6.25a.75.75 0 0 0 0-1.5H5a.5.5 0 0 1-.5-.5V5a.5.5 0 0 1 .5-.5h4.25a.75.75 0 0 0 0-1.5H5Z"/></svg>
